X:185
T:Lassie in the Yellow Coatie. Ru1.185, The
%%VWML:RutherfordVol1-2248-p73-0p73
Z:Transcription by Village Music Project, Steve Mansfield July 2015
F:http://www.village-music-project.org.uk/
F:http://www.vwml.org/record/RutherfordVol1/2248/p73
L:1/8
W:The first Couple casts of[f] two Couple .|
W:cast up again :| Cross over & half Figure
W:.| right hand and Left quite round with
W:the second Couple :||: foot it Corners and
W:turn .|| foot it the other Corners and turn
W::|| Lead through the Mens side and turn
W:your Partner .||. Lead through the Womens
W:side and turn it out :|
Q:2/4=60
K:Em
|:G2GB de=fd | edgd edeg | G2GB degd | e/f/g dB A>G E2 :|
|: g>abg aefd | Bdde =f>gaf | g>abg aefd | e/f/g dB A>GE2 :|]
T:Scotland Yard. Ru1.186
B:Rutherford's Country Dances Vol 1, 1756
Z:village music project, Steve Mansfield July 2015
M:C|
L:1/8
W:The first Man sets to the second Woman and turns her .|
W:The first Woman does the same :| Cross over two Couple
W:Lead upto the Top foot it and cast of[f] .| Hands a Cross
W:half round with the second Couple and Back again right
W:Hand and Left quite round with the second Couple :|
Q:2/4=60
K:G
|:BGGg e/f/gd2 | BGdB A/A/AA2 | BGGg e/f/gd2 | BGdB G/G/G G2 :|
|: BGGB c/c/c cA | dBdB A/A/AA2 | BGGB cdef | gedB G/G/GG2 |
BGGB c/c/c ce | dBdB A/A/A Af | gefd ecdB | cAdB G/G/GG2 :|]
